teeny/solid/refresh.svg

<svg width="15" height="15" viewBox="0 0 15 15" fill="none" xmlns="http://www.w3.org/2000/svg">
<path fill-rule="evenodd" clip-rule="evenodd" d="M14 7.5C14 3.91015 11.0899 1 7.5 1V0C11.6421 0 15 3.35786 15 7.5C15 9.6733 14.0751 11.6308 12.599 13H15V14H11V10H12V12.1905C13.2333 11.007 14 9.34315 14 7.5ZM2.40095 2H0V1H4V5H3V2.80955C1.76671 3.993 1 5.65685 1 7.5C1 11.0899 3.91015 14 7.5 14V15C3.35786 15 0 11.6421 0 7.5C0 5.3267 0.924851 3.36918 2.40095 2Z" fill="black"/>
</svg>

<svg viewBox="0 0 15 15" xmlns="http://www.w3.org/2000/svg"><path fill-rule="evenodd" d="M14 7.5C14 3.91 11.08 1 7.5 1V0C11.64 0 15 3.35 15 7.5c0 2.17-.93 4.13-2.401 5.5H15v1h-4v-4h1v2.19c1.23-1.19 2-2.85 2-4.7ZM2.4 2H-.01V1h4v4h-1V2.8c-1.24 1.18-2 2.84-2 4.69 0 3.58 2.91 6.5 6.5 6.5v1c-4.15 0-7.5-3.36-7.5-7.5 0-2.18.92-4.14 2.4-5.5Z"/></svg>
